icons/rest-time-line.svg

<svg viewBox="0 0 24 24" fill="currentColor" xmlns="http://www.w3.org/2000/svg">
    <path d="M11 6V8C7.68629 8 5 10.6863 5 14C5 17.3137 7.68629 20 11 20C14.2384 20 16.8776 17.4344 16.9959 14.2249L17 14H19C19 18.4183 15.4183 22 11 22C6.58172 22 3 18.4183 3 14C3 9.66509 6.58 6 11 6ZM21 2V4L15.6726 10H21V12H13V10L18.3256 4H13V2H21Z"/>
</svg>

<svg xmlns="http://www.w3.org/2000/svg" viewBox="0 0 24 24">
    <g>
        <path fill="none" d="M0 0H24V24H0z"/>
        <path d="M11 6v2c-3.314 0-6 2.686-6 6s2.686 6 6 6c3.238 0 5.878-2.566 5.996-5.775L17 14h2c0 4.418-3.582 8-8 8s-8-3.582-8-8c0-4.335 3.58-8 8-8zm10-4v2l-5.327 6H21v2h-8v-2l5.326-6H13V2h8z"/>
    </g>
</svg>
